svgs/sharp-regular/camera.svg

<svg xmlns="http://www.w3.org/2000/svg" viewBox="0 0 512 512"><!--! Font Awesome Pro 6.6.0 by @fontawesome - https://fontawesome.com License - https://fontawesome.com/license (Commercial License) Copyright 2024 Fonticons, Inc. --><path d="M352 32l21.3 64L464 96l48 0 0 48 0 288 0 48-48 0L48 480 0 480l0-48L0 144 0 96l48 0 90.7 0L160 32l192 0zm21.3 112l-34.6 0-10.9-32.8L317.4 80 194.6 80l-10.4 31.2L173.3 144l-34.6 0L48 144l0 288 416 0 0-288-90.7 0zM256 176a112 112 0 1 1 0 224 112 112 0 1 1 0-224zm64 112a64 64 0 1 0 -128 0 64 64 0 1 0 128 0z"/></svg>

<svg xmlns="http://www.w3.org/2000/svg" viewBox="0 0 512 512"><!--! Font Awesome Pro 6.4.2 by @fontawesome - https://fontawesome.com License - https://fontawesome.com/license (Commercial License) Copyright 2023 Fonticons, Inc. --><path d="M352 32l21.3 64H464h48v48V432v48H464 48 0V432 144 96H48h90.7L160 32H352zm21.3 112H338.7l-10.9-32.8L317.4 80H194.6l-10.4 31.2L173.3 144H138.7 48V432H464V144H373.3zM256 176a112 112 0 1 1 0 224 112 112 0 1 1 0-224zm64 112a64 64 0 1 0 -128 0 64 64 0 1 0 128 0z"/></svg>
